file/playboy.svg

<svg clip-rule="evenodd" fill-rule="evenodd" stroke-linejoin="round" stroke-miterlimit="1.41421" viewBox="0 0 560 400" xmlns="http://www.w3.org/2000/svg"><path d="m254.601 265.722h-1.666c-1.999-.082-3.915-.582-5.792-1.373-1.874-.832-3.415-2.084-4.623-3.75-.417-.541-.748-1.123-1.042-1.75-.291-.584-.543-1.166-.749-1.748-.459-1.334-.751-2.584-.916-3.834-.124-1.207-.167-2.207-.167-2.957 0-.834.042-1.709.167-2.668.082-.914.29-1.832.583-2.789.25-.793.584-1.582.958-2.377.331-.791.791-1.541 1.332-2.248.668-.918 1.374-1.668 2.125-2.291.794-.625 1.542-1.125 2.291-1.582 1.291-.627 2.5-1.043 3.708-1.252 1.167-.207 2.167-.291 2.957-.291.793 0 1.751.084 2.958.291 1.169.166 2.376.584 3.626 1.207.791.418 1.582.961 2.331 1.586.794.623 1.5 1.373 2.169 2.332.54.707 1 1.457 1.374 2.248.373.795.667 1.584.915 2.377.293.957.501 1.875.626 2.789.082.959.168 1.834.168 2.668 0 .75-.086 1.75-.21 2.957-.125 1.25-.458 2.5-.918 3.834-.208.582-.455 1.164-.748 1.748-.293.627-.624 1.209-1.041 1.75-1.207 1.666-2.75 2.918-4.627 3.75-1.873.791-3.79 1.291-5.789 1.373zm-28.618-30.156c.582 0 1.124 0 1.707.041 2.454.006 4.553-.321 6.576.656 1.952.941 3.172 3.717 3.172 6.76 0 2.043-.626 3.582-1.915 4.707-1.25 1.125-2.668 1.707-4.209 1.707h-.208v.375h.498c2.292 0 4 .75 5.084 2.205 1.083 1.461 1.666 3.168 1.666 5.043 0 4-1.712 7.458-4.884 7.771-2.961.291-10.551.229-10.572.229h-11.372v-5.873l1.209-.043s.043.043.082.043c.416 0 .75-.084 1.002-.211.289-.164.414-.664.414-1.498v-14.33c0-.834-.125-1.336-.414-1.457-.252-.168-.586-.209-1.002-.209h-1.291v-5.916zm63.537 29.493h-14.705v-5.873h1.872c.253 0 .501-.082.711-.209.207-.166.331-.541.331-1.166v-3.873l-6.912-10.498c-.043-.043-.087-.125-.127-.168 0-.086-.042-.125-.083-.209-.249-.5-.54-.875-.874-1.168-.335-.289-.875-.414-1.623-.414h-.418v-5.916h14.371v5.916h-.708c-.209 0-.375 0-.54.082-.168.043-.25.17-.25.377s.041.416.168.666c.082.252.164.666.497 1.084l2.126 2.623h.247l2.25-3.625s.044-.041.044-.082c0-.043.041-.125.041-.166.042-.045.042-.045.042-.084 0-.043.04-.043.04-.084s0-.125.043-.166v-.166c0-.207-.083-.377-.291-.418-.209-.041-.418-.041-.667-.041h-.625v-5.916h11.04v5.916h-1.126c-.542 0-.958.082-1.25.291s-.541.584-.749 1.043c-.125.248-.251.539-.374.914-.124.336-.252.793-.46 1.209l-4.833 8.707v4.291c0 .584.084.959.293 1.041.167.127.373.209.624.209h1.875zm-135.475-.001h-23.497v-5.916l1.25.041c.751 0 1.167-.166 1.293-.459.165-.414.208-.83.208-1.248v-14.332c0-.418-.043-.832-.167-1.207-.167-.289-.583-.457-1.334-.457h-1.25v-5.916h14.623v5.916h-1.541c-.541 0-.875.082-1.041.25-.209.164-.291.625-.291 1.332v15.08h4.291c1.083 0 1.792-.125 2.125-.375.375-.248.666-.916.915-2.041.041-.209.083-.416.125-.707.041-.25.083-.5.124-.834h4.374zm12.619 0h-10.916v-5.875h.626c.749 0 1.332-.291 1.749-.791.084-.127.167-.25.25-.375.292-.416.542-.834.709-1.291.042-.127.083-.295.125-.418.083-.166.124-.291.166-.418l3.918-12.455 2.331-7.871h11.333l6 21.078c0 .082.041.166.041.25.041.082.041.166.083.248.25.752.499 1.291.79 1.584.336.293.794.459 1.416.459h.626v5.875h-13.708v-5.875h1.209c.25 0 .459-.041.667-.084.208-.041.292-.166.292-.416v-.082c-.042 0-.042-.043-.042-.084l-.167-.959h-8.956l-.167.541c-.042.166-.083.332-.083.502 0 .123.041.248.125.332.041.084.166.125.333.166.166.043.417.084.833.084h.417zm-48.409-.001h-14.957v-5.916l1.208.045c.626 0 1.001-.125 1.209-.334.208-.207.333-.666.333-1.375v-14.33c0-.707-.124-1.166-.333-1.375s-.583-.291-1.209-.291h-1.208v-5.916h12.331c.417 0 .833 0 1.25.041 3.125.125 5.959.791 8.542 1.959v-.006c2.583 1.211 3.873 3.836 3.873 7.959 0 .498-.041 1.043-.125 1.625-.084.584-.25 1.207-.458 1.832-.541 1.416-1.582 2.748-3.124 3.918-1.583 1.207-4.041 1.791-7.375 1.791h-3.163v2.791c0 .625.082 1.041.29 1.291.167.25.584.416 1.25.416h1.666zm85.194-.001h-14.748v-5.873h1.916c.25 0 .457-.084.707-.209.209-.168.334-.543.334-1.166v-.291l-.043-3.5-4.041-6.166-2.791-4.416c-.042-.041-.084-.123-.125-.164-.041-.084-.041-.127-.083-.211-.25-.5-.583-.875-.916-1.166-.333-.293-.875-.416-1.625-.416h-.374v-5.914h14.289v5.914h-.666c-.209 0-.418 0-.543.084-.168.039-.25.166-.25.373 0 .209.041.418.168.668.082.25.166.668.5 1.082l2.082 2.748h.25l2.291-3.748s0-.041.041-.082c0-.043 0-.127.043-.168 0-.041.039-.041.039-.082v-.082c.043-.041.043-.127.043-.168.043-.041.043-.127.043-.168 0-.207-.125-.373-.293-.414-.207-.043-.416-.043-.666-.043h-.666v-5.914h11.08v5.914h-1.123c-.541 0-1 .084-1.25.291-.291.207-.543.584-.75 1.043-.125.248-.25.541-.373.916-.168.332-.252.791-.461 1.207l-4.832 8.955v4.045c0 .582.086.957.252 1.039.207.125.414.209.623.209h1.918zm50.777-23.328h-.875c-.165 0-.29 0-.459.041-.623.125-1.208.666-1.706 1.543-.501.873-.75 2.748-.75 5.662v2.709c0 2.043.167 3.75.582 5.125.418 1.375 1.334 2.041 2.749 2.041 1.416 0 2.334-.666 2.752-2.041.415-1.375.623-3.082.623-5.125v-2.709c0-2.914-.25-4.789-.79-5.662-.502-.877-1.083-1.418-1.71-1.543-.124-.041-.291-.041-.416-.041zm-28.704 11.377h-2.292v5.539h2.458c.209 0 .418-.041.666-.084.462-.082.877-.332 1.252-.707.416-.375.582-1.002.582-1.834 0-.959-.247-1.709-.706-2.166-.5-.5-1.166-.748-1.96-.748zm-53.275-2.17-2.166-7.748h-.334l-2.457 7.748zm-56.324-8.995h-.876v6.33h.625c.208 0 .416-.041.708-.041.291-.041.625-.123.916-.166.501-.166.916-.5 1.334-.957.417-.459.625-1.168.625-2.125 0-.834-.25-1.541-.75-2.123-.501-.627-1.376-.918-2.582-.918zm108.391.038h-1.083l-.001 5.209h1.917c1.084 0 1.792-.25 2.209-.791.376-.582.585-1.209.585-1.875 0-1.166-.377-1.877-1.085-2.166-.668-.25-1.542-.377-2.542-.377zm-32.899-38.321-13.682-9.019-.302-.201v19.998l.283-.123 13.283-5.467 12.502 10.179.258.219.063-.34 3.14-22.882.065-.377-.347.179zm18.071-.763 31.879-9.053.281-.082-.027.281-.395 5.129v.143l-.143.016-32.3 9.478-.275.076.04-.295.78-5.514.021-.14.122-.039zm43.755-105.902c9.448-31.554 5.904-41.02 6.691-62.713-51.194 38.655-34.653 84.404-37.41 83.616-24.021-33.523-47.647-62.316-83.48-77.307 0-3.546-5.911 51.671 69.299 78.095-52.766 6.705-48.828 39.835-48.828 39.835 1.182 17.356 31.503 24.851 31.503 24.851-5.907 8.677-.395 17.75 0 16.96l.005.001c5.119-2.761 14.57-7.493 20.478-10.647l-1.576 9.07 31.504-10.254c3.938-17.749 12.601-49.699-5.907-63.107 0-.789 9.056-5.523 17.721-28.4zm-66.553 52.064c-3.938 0-7.087-3.156-7.087-7.102 0-3.943 3.149-7.494 7.087-7.494s7.482 3.551 7.482 7.494-3.543 7.102-7.482 7.102z" fill-rule="nonzero" transform="matrix(1.04046 0 0 1.04046 72.5222 43.9299)"/></svg>

<?xml version="1.0" encoding="UTF-8" standalone="no"?>
<!DOCTYPE svg PUBLIC "-//W3C//DTD SVG 1.1//EN" "http://www.w3.org/Graphics/SVG/1.1/DTD/svg11.dtd">
<svg width="100%" height="100%" viewBox="0 0 560 400" version="1.1" xmlns="http://www.w3.org/2000/svg" xmlns:xlink="http://www.w3.org/1999/xlink" xml:space="preserve" xmlns:serif="http://www.serif.com/" style="fill-rule:evenodd;clip-rule:evenodd;stroke-linejoin:round;stroke-miterlimit:1.41421;">
    <g id="rabbit3" transform="matrix(1.04046,0,0,1.04046,72.5222,43.9299)">
        <path d="M254.601,265.722L252.935,265.722C250.936,265.64 249.02,265.14 247.143,264.349C245.269,263.517 243.728,262.265 242.52,260.599C242.103,260.058 241.772,259.476 241.478,258.849C241.187,258.265 240.935,257.683 240.729,257.101C240.27,255.767 239.978,254.517 239.813,253.267C239.689,252.06 239.646,251.06 239.646,250.31C239.646,249.476 239.688,248.601 239.813,247.642C239.895,246.728 240.103,245.81 240.396,244.853C240.646,244.06 240.98,243.271 241.354,242.476C241.685,241.685 242.145,240.935 242.686,240.228C243.354,239.31 244.06,238.56 244.811,237.937C245.605,237.312 246.353,236.812 247.102,236.355C248.393,235.728 249.602,235.312 250.81,235.103C251.977,234.896 252.977,234.812 253.767,234.812C254.56,234.812 255.518,234.896 256.725,235.103C257.894,235.269 259.101,235.687 260.351,236.31C261.142,236.728 261.933,237.271 262.682,237.896C263.476,238.519 264.182,239.269 264.851,240.228C265.391,240.935 265.851,241.685 266.225,242.476C266.598,243.271 266.892,244.06 267.14,244.853C267.433,245.81 267.641,246.728 267.766,247.642C267.848,248.601 267.934,249.476 267.934,250.31C267.934,251.06 267.848,252.06 267.724,253.267C267.599,254.517 267.266,255.767 266.806,257.101C266.598,257.683 266.351,258.265 266.058,258.849C265.765,259.476 265.434,260.058 265.017,260.599C263.81,262.265 262.267,263.517 260.39,264.349C258.517,265.14 256.6,265.64 254.601,265.722ZM225.983,235.566C226.565,235.566 227.107,235.566 227.69,235.607C230.144,235.613 232.243,235.286 234.266,236.263C236.218,237.204 237.438,239.98 237.438,243.023C237.438,245.066 236.812,246.605 235.523,247.73C234.273,248.855 232.855,249.437 231.314,249.437L231.106,249.437L231.106,249.812L231.604,249.812C233.896,249.812 235.604,250.562 236.688,252.017C237.771,253.478 238.354,255.185 238.354,257.06C238.354,261.06 236.642,264.518 233.47,264.831C230.509,265.122 222.919,265.06 222.898,265.06L211.526,265.06L211.526,259.187L212.735,259.144C212.735,259.144 212.778,259.187 212.817,259.187C213.233,259.187 213.567,259.103 213.819,258.976C214.108,258.812 214.233,258.312 214.233,257.478L214.233,243.148C214.233,242.314 214.108,241.812 213.819,241.691C213.567,241.523 213.233,241.482 212.817,241.482L211.526,241.482L211.526,235.566L225.983,235.566ZM289.52,265.059L274.815,265.059L274.815,259.186L276.687,259.186C276.94,259.186 277.188,259.104 277.398,258.977C277.605,258.811 277.729,258.436 277.729,257.811L277.729,253.938L270.817,243.44C270.774,243.397 270.73,243.315 270.69,243.272C270.69,243.186 270.648,243.147 270.607,243.063C270.358,242.563 270.067,242.188 269.733,241.895C269.398,241.606 268.858,241.481 268.11,241.481L267.692,241.481L267.692,235.565L282.063,235.565L282.063,241.481L281.355,241.481C281.146,241.481 280.98,241.481 280.815,241.563C280.647,241.606 280.565,241.733 280.565,241.94C280.565,242.147 280.606,242.356 280.733,242.606C280.815,242.858 280.897,243.272 281.23,243.69L283.356,246.313L283.603,246.313L285.853,242.688C285.853,242.688 285.897,242.647 285.897,242.606C285.897,242.563 285.938,242.481 285.938,242.44C285.98,242.395 285.98,242.395 285.98,242.356C285.98,242.313 286.02,242.313 286.02,242.272C286.02,242.231 286.02,242.147 286.063,242.106L286.063,241.94C286.063,241.733 285.98,241.563 285.772,241.522C285.563,241.481 285.354,241.481 285.105,241.481L284.48,241.481L284.48,235.565L295.52,235.565L295.52,241.481L294.394,241.481C293.852,241.481 293.436,241.563 293.144,241.772C292.852,241.981 292.603,242.356 292.395,242.815C292.27,243.063 292.144,243.354 292.021,243.729C291.897,244.065 291.769,244.522 291.561,244.938L286.728,253.645L286.728,257.936C286.728,258.52 286.812,258.895 287.021,258.977C287.188,259.104 287.394,259.186 287.645,259.186L289.52,259.186L289.52,265.059ZM154.045,265.058L130.548,265.058L130.548,259.142L131.798,259.183C132.549,259.183 132.965,259.017 133.091,258.724C133.256,258.31 133.299,257.894 133.299,257.476L133.299,243.144C133.299,242.726 133.256,242.312 133.132,241.937C132.965,241.648 132.549,241.48 131.798,241.48L130.548,241.48L130.548,235.564L145.171,235.564L145.171,241.48L143.63,241.48C143.089,241.48 142.755,241.562 142.589,241.73C142.38,241.894 142.298,242.355 142.298,243.062L142.298,258.142L146.589,258.142C147.672,258.142 148.381,258.017 148.714,257.767C149.089,257.519 149.38,256.851 149.629,255.726C149.67,255.517 149.712,255.31 149.754,255.019C149.795,254.769 149.837,254.519 149.878,254.185L154.252,254.185L154.045,265.058ZM166.664,265.058L155.748,265.058L155.748,259.183L156.374,259.183C157.123,259.183 157.706,258.892 158.123,258.392C158.207,258.265 158.29,258.142 158.373,258.017C158.665,257.601 158.915,257.183 159.082,256.726C159.124,256.599 159.165,256.431 159.207,256.308C159.29,256.142 159.331,256.017 159.373,255.89L163.291,243.435L165.622,235.564L176.955,235.564L182.955,256.642C182.955,256.724 182.996,256.808 182.996,256.892C183.037,256.974 183.037,257.058 183.079,257.14C183.329,257.892 183.578,258.431 183.869,258.724C184.205,259.017 184.663,259.183 185.285,259.183L185.911,259.183L185.911,265.058L172.203,265.058L172.203,259.183L173.412,259.183C173.662,259.183 173.871,259.142 174.079,259.099C174.287,259.058 174.371,258.933 174.371,258.683L174.371,258.601C174.329,258.601 174.329,258.558 174.329,258.517L174.162,257.558L165.206,257.558L165.039,258.099C164.997,258.265 164.956,258.431 164.956,258.601C164.956,258.724 164.997,258.849 165.081,258.933C165.122,259.017 165.247,259.058 165.414,259.099C165.58,259.142 165.831,259.183 166.247,259.183L166.664,259.183L166.664,265.058ZM118.255,265.057L103.298,265.057L103.298,259.141L104.506,259.186C105.132,259.186 105.507,259.061 105.715,258.852C105.923,258.645 106.048,258.186 106.048,257.477L106.048,243.147C106.048,242.44 105.924,241.981 105.715,241.772C105.506,241.563 105.132,241.481 104.506,241.481L103.298,241.481L103.298,235.565L115.629,235.565C116.046,235.565 116.462,235.565 116.879,235.606C120.004,235.731 122.838,236.397 125.421,237.565L125.421,237.559C128.004,238.77 129.294,241.395 129.294,245.518C129.294,246.016 129.253,246.561 129.169,247.143C129.085,247.727 128.919,248.35 128.711,248.975C128.17,250.391 127.129,251.723 125.587,252.893C124.004,254.1 121.546,254.684 118.212,254.684L115.049,254.684L115.049,257.475C115.049,258.1 115.131,258.516 115.339,258.766C115.506,259.016 115.923,259.182 116.589,259.182L118.255,259.182L118.255,265.057ZM203.449,265.056L188.701,265.056L188.701,259.183L190.617,259.183C190.867,259.183 191.074,259.099 191.324,258.974C191.533,258.806 191.658,258.431 191.658,257.808L191.658,257.517L191.615,254.017L187.574,247.851L184.783,243.435C184.741,243.394 184.699,243.312 184.658,243.271C184.617,243.187 184.617,243.144 184.575,243.06C184.325,242.56 183.992,242.185 183.659,241.894C183.326,241.601 182.784,241.478 182.034,241.478L181.66,241.478L181.66,235.564L195.949,235.564L195.949,241.478L195.283,241.478C195.074,241.478 194.865,241.478 194.74,241.562C194.572,241.601 194.49,241.728 194.49,241.935C194.49,242.144 194.531,242.353 194.658,242.603C194.74,242.853 194.824,243.271 195.158,243.685L197.24,246.433L197.49,246.433L199.781,242.685C199.781,242.685 199.781,242.644 199.822,242.603C199.822,242.56 199.822,242.476 199.865,242.435C199.865,242.394 199.904,242.394 199.904,242.353L199.904,242.271C199.947,242.23 199.947,242.144 199.947,242.103C199.99,242.062 199.99,241.976 199.99,241.935C199.99,241.728 199.865,241.562 199.697,241.521C199.49,241.478 199.281,241.478 199.031,241.478L198.365,241.478L198.365,235.564L209.445,235.564L209.445,241.478L208.322,241.478C207.781,241.478 207.322,241.562 207.072,241.769C206.781,241.976 206.529,242.353 206.322,242.812C206.197,243.06 206.072,243.353 205.949,243.728C205.781,244.06 205.697,244.519 205.488,244.935L200.656,253.89L200.656,257.935C200.656,258.517 200.742,258.892 200.908,258.974C201.115,259.099 201.322,259.183 201.531,259.183L203.449,259.183L203.449,265.056ZM254.226,241.728L253.351,241.728C253.186,241.728 253.061,241.728 252.892,241.769C252.269,241.894 251.684,242.435 251.186,243.312C250.685,244.185 250.436,246.06 250.436,248.974L250.436,251.683C250.436,253.726 250.603,255.433 251.018,256.808C251.436,258.183 252.352,258.849 253.767,258.849C255.183,258.849 256.101,258.183 256.519,256.808C256.934,255.433 257.142,253.726 257.142,251.683L257.142,248.974C257.142,246.06 256.892,244.185 256.352,243.312C255.85,242.435 255.269,241.894 254.642,241.769C254.518,241.728 254.351,241.728 254.226,241.728ZM225.522,253.105L223.23,253.105L223.23,258.644L225.688,258.644C225.897,258.644 226.106,258.603 226.354,258.56C226.816,258.478 227.231,258.228 227.606,257.853C228.022,257.478 228.188,256.851 228.188,256.019C228.188,255.06 227.941,254.31 227.482,253.853C226.982,253.353 226.316,253.105 225.522,253.105ZM172.247,250.935L170.081,243.187L169.747,243.187L167.29,250.935L172.247,250.935ZM115.923,241.94L115.047,241.94L115.047,248.27L115.672,248.27C115.88,248.27 116.088,248.229 116.38,248.229C116.671,248.188 117.005,248.106 117.296,248.063C117.797,247.897 118.212,247.563 118.63,247.106C119.047,246.647 119.255,245.938 119.255,244.981C119.255,244.147 119.005,243.44 118.505,242.858C118.004,242.231 117.129,241.94 115.923,241.94ZM224.314,241.978L223.231,241.978L223.23,247.187L225.147,247.187C226.231,247.187 226.939,246.937 227.356,246.396C227.732,245.814 227.941,245.187 227.941,244.521C227.941,243.355 227.564,242.644 226.856,242.355C226.188,242.105 225.314,241.978 224.314,241.978ZM191.415,203.657L177.733,194.638L177.431,194.437L177.431,214.435L177.714,214.312L190.997,208.845L203.499,219.024L203.757,219.243L203.82,218.903L206.96,196.021L207.025,195.644L206.678,195.823L191.415,203.657ZM209.486,202.894L241.365,193.841L241.646,193.759L241.619,194.04L241.224,199.169L241.224,199.312L241.081,199.328L208.781,208.806L208.506,208.882L208.546,208.587L209.326,203.073L209.347,202.933L209.469,202.894L209.486,202.894ZM253.241,96.992C262.689,65.438 259.145,55.972 259.932,34.279C208.738,72.934 225.279,118.683 222.522,117.895C198.501,84.372 174.875,55.579 139.042,40.588C139.042,37.042 133.131,92.259 208.341,118.683C155.575,125.388 159.513,158.518 159.513,158.518C160.695,175.874 191.016,183.369 191.016,183.369C185.109,192.046 190.621,201.119 191.016,200.329L191.021,200.33C196.14,197.569 205.591,192.837 211.499,189.683L209.923,198.753L241.427,188.499C245.365,170.75 254.028,138.8 235.52,125.392C235.52,124.603 244.576,119.869 253.241,96.992ZM186.688,149.056C182.75,149.056 179.601,145.9 179.601,141.954C179.601,138.011 182.75,134.46 186.688,134.46C190.626,134.46 194.17,138.011 194.17,141.954C194.17,145.897 190.627,149.056 186.688,149.056Z" style="fill-rule:nonzero;"/>
    </g>
</svg>
